api/mockups/Facebook Design Logo.svg

<svg width="282" height="26" viewBox="0 0 282 26" fill="none" xmlns="http://www.w3.org/2000/svg">
<g clip-path="url(#clip0)">
<path d="M14.5702 0.648926V3.20791C14.5729 3.24505 14.5676 3.28232 14.5548 3.31728C14.5419 3.35223 14.5218 3.38406 14.4958 3.41068C14.4698 3.43729 14.4384 3.45808 14.4037 3.47167C14.3691 3.48526 14.3319 3.49134 14.2947 3.48952H3.27519V8.71768H12.3724C12.4096 8.71504 12.4468 8.7203 12.4818 8.73313C12.5167 8.74595 12.5486 8.76605 12.5752 8.79208C12.6018 8.81812 12.6226 8.84951 12.6362 8.88417C12.6498 8.91883 12.6559 8.95598 12.654 8.99317V11.5522C12.6558 11.5896 12.6497 11.627 12.6362 11.6619C12.6226 11.6969 12.6019 11.7287 12.5754 11.7552C12.5489 11.7817 12.5172 11.8023 12.4822 11.8159C12.4473 11.8294 12.4099 11.8355 12.3724 11.8338H3.3058V19.5474C3.30844 19.5846 3.30317 19.6219 3.29035 19.6568C3.27752 19.6918 3.25743 19.7236 3.23139 19.7502C3.20536 19.7768 3.17397 19.7976 3.13931 19.8112C3.10464 19.8248 3.06749 19.8309 3.03031 19.8291H0.27542C0.238233 19.8309 0.201083 19.8248 0.16642 19.8112C0.131758 19.7976 0.100374 19.7768 0.0743377 19.7502C0.0483019 19.7236 0.0282076 19.6918 0.0153819 19.6568C0.00255619 19.6219 -0.00271108 19.5846 -6.87373e-05 19.5474V0.648926C-0.00181657 0.612286 0.00411271 0.575683 0.0173389 0.541468C0.0305651 0.507253 0.0507976 0.476181 0.0767361 0.450242C0.102675 0.424304 0.133746 0.404071 0.167962 0.390845C0.202177 0.377619 0.238779 0.37169 0.27542 0.373437H14.2947C14.3314 0.37169 14.368 0.377619 14.4022 0.390845C14.4364 0.404071 14.4675 0.424304 14.4934 0.450242C14.5194 0.476181 14.5396 0.507253 14.5528 0.541468C14.566 0.575683 14.572 0.612286 14.5702 0.648926V0.648926Z" fill="#006B4E"/>
<path d="M36.9829 19.8291H33.9525C33.878 19.8332 33.8045 19.81 33.7458 19.7638C33.6872 19.7176 33.6475 19.6515 33.6342 19.5781C33.2301 17.9802 32.7465 16.2967 32.1894 14.6009H22.884C22.3269 16.2967 21.8433 17.9802 21.4514 19.5781C21.4381 19.6515 21.3984 19.7176 21.3398 19.7638C21.2811 19.81 21.2076 19.8332 21.1331 19.8291H18.2129C18.017 19.8291 17.9068 19.7189 17.9619 19.523C19.8426 13.0805 22.2231 6.79454 25.0818 0.72239C25.1204 0.610781 25.1947 0.514971 25.2932 0.449708C25.3916 0.384444 25.5088 0.353344 25.6266 0.361194H29.5753C29.6925 0.35262 29.8093 0.383524 29.9069 0.448982C30.0045 0.514439 30.0774 0.610686 30.114 0.72239C32.9826 6.79033 35.3634 13.0771 37.2339 19.523C37.289 19.7189 37.1788 19.8291 36.9829 19.8291ZM31.1609 11.595C30.1446 8.78502 29.0182 5.98116 27.8611 3.42218H27.2122C26.0552 5.98116 24.9165 8.78502 23.9002 11.595H31.1609Z" fill="#006B4E"/>
<path d="M41.9722 10.2604C41.9722 4.22416 45.9514 -1.57907e-06 51.6265 -1.57907e-06H52.0428C53.6174 -0.0403859 55.1732 0.349949 56.5423 1.12889C57.9114 1.90783 59.0418 3.04581 59.8116 4.42006C59.9095 4.59148 59.885 4.72616 59.7198 4.81187L57.271 6.03626C57.2313 6.06237 57.1867 6.07996 57.1399 6.08794C57.0932 6.09591 57.0452 6.09408 56.9992 6.08257C56.9532 6.07106 56.91 6.05012 56.8725 6.02107C56.835 5.99203 56.8039 5.9555 56.7812 5.91382C56.3169 5.04465 55.6138 4.32637 54.7547 3.84369C53.8956 3.361 52.9164 3.13403 51.9326 3.18955H51.5102C47.9411 3.18955 45.4801 6.02402 45.4801 10.1441C45.4801 14.2642 47.9288 17.0374 51.5102 17.0374H51.9326C54.2651 17.0374 55.6058 16.2477 56.671 15.0356C56.7225 14.9661 56.7976 14.9179 56.8821 14.8999C56.9666 14.8818 57.0548 14.8952 57.1302 14.9376L59.6463 16.162C59.6858 16.1781 59.72 16.205 59.7449 16.2396C59.7698 16.2743 59.7845 16.3153 59.7871 16.3579C59.7799 16.4343 59.75 16.5067 59.7014 16.566C58.1587 18.8189 55.3793 20.2392 51.9877 20.2392H51.5714C45.7862 20.1903 41.9722 16.2293 41.9722 10.2604Z" fill="#006B4E"/>
<path d="M81.9548 16.9946V19.5474C81.9565 19.5849 81.9504 19.6223 81.9369 19.6572C81.9234 19.6922 81.9027 19.7239 81.8762 19.7505C81.8497 19.777 81.8179 19.7976 81.783 19.8112C81.748 19.8247 81.7106 19.8308 81.6732 19.8291H67.0723C67.0351 19.8309 66.998 19.8248 66.9633 19.8112C66.9286 19.7976 66.8972 19.7768 66.8712 19.7502C66.8452 19.7236 66.8251 19.6918 66.8123 19.6568C66.7994 19.6219 66.7942 19.5846 66.7968 19.5474V0.648929C66.7951 0.612288 66.801 0.575686 66.8142 0.54147C66.8274 0.507255 66.8477 0.476183 66.8736 0.450245C66.8995 0.424306 66.9306 0.404074 66.9648 0.390848C66.9991 0.377621 67.0357 0.371692 67.0723 0.37344H81.4222C81.4593 0.370798 81.4966 0.376062 81.5316 0.388888C81.5665 0.401714 81.5983 0.421808 81.6249 0.447844C81.6516 0.47388 81.6724 0.505267 81.6859 0.539929C81.6995 0.574591 81.7056 0.611742 81.7038 0.648929V3.20791C81.7055 3.24536 81.6994 3.28275 81.6859 3.31771C81.6724 3.35267 81.6517 3.38441 81.6252 3.41092C81.5987 3.43742 81.5669 3.45811 81.532 3.47164C81.497 3.48518 81.4596 3.49127 81.4222 3.48952H70.1333V8.55239H79.3162C79.3529 8.55064 79.3895 8.55657 79.4237 8.5698C79.4579 8.58302 79.489 8.60325 79.5149 8.62919C79.5408 8.65513 79.5611 8.6862 79.5743 8.72042C79.5875 8.75464 79.5935 8.79124 79.5917 8.82788V11.3563C79.5944 11.3934 79.5891 11.4307 79.5763 11.4656C79.5634 11.5006 79.5433 11.5324 79.5173 11.559C79.4913 11.5856 79.4599 11.6064 79.4252 11.62C79.3906 11.6336 79.3534 11.6397 79.3162 11.6379H70.1333V16.7252H81.7038C81.772 16.7299 81.8359 16.7603 81.8825 16.8103C81.9291 16.8603 81.955 16.9262 81.9548 16.9946Z" fill="#006B4E"/>
<path d="M107.092 14.4907C107.092 17.8945 104.478 19.8291 99.8616 19.8291H90.293C90.2558 19.8309 90.2187 19.8248 90.184 19.8112C90.1493 19.7976 90.1179 19.7768 90.0919 19.7502C90.0659 19.7236 90.0458 19.6918 90.033 19.6568C90.0201 19.6219 90.0149 19.5846 90.0175 19.5474V0.648926C90.0158 0.612286 90.0217 0.575683 90.0349 0.541468C90.0481 0.507253 90.0684 0.476181 90.0943 0.450242C90.1203 0.424304 90.1513 0.404071 90.1855 0.390845C90.2198 0.377619 90.2564 0.37169 90.293 0.373437H99.0107C103.504 0.373437 105.953 2.15493 105.953 5.4057C105.953 7.54838 104.869 8.95032 102.672 9.60537C105.757 10.2482 107.092 12.097 107.092 14.4907ZM98.9433 3.39157H93.3234V8.60748H98.9433C101.459 8.60748 102.617 7.78714 102.617 5.9934C102.617 4.19967 101.459 3.39157 98.9433 3.39157ZM103.7 14.1968C103.7 12.3909 102.476 11.5705 99.8739 11.5705H93.3234V16.7987H99.8739C102.543 16.7987 103.7 16.0212 103.7 14.1968Z" fill="#006B4E"/>
<path d="M112.92 10.0951C112.92 4.22416 116.807 0 122.929 0H123.345C129.467 0 133.355 4.22416 133.355 10.0951C133.355 15.9661 129.461 20.1903 123.345 20.1903H122.929C116.807 20.1903 112.92 15.9539 112.92 10.0951ZM123.327 17.0191C127.319 17.0191 129.835 14.2826 129.835 10.0951C129.835 5.9077 127.319 3.17118 123.327 3.17118H122.911C118.919 3.17118 116.403 5.9077 116.403 10.0951C116.403 14.2826 118.919 17.0191 122.911 17.0191H123.327Z" fill="#006B4E"/>
<path d="M138.999 10.0951C138.999 4.22416 142.893 0 149.015 0H149.431C155.553 0 159.441 4.22416 159.441 10.0951C159.441 15.9661 155.547 20.1903 149.431 20.1903H149.015C142.893 20.1903 138.999 15.9539 138.999 10.0951ZM149.407 17.0191C153.398 17.0191 155.914 14.2826 155.914 10.0951C155.914 5.9077 153.398 3.17118 149.407 3.17118H148.99C144.999 3.17118 142.483 5.9077 142.483 10.0951C142.483 14.2826 144.999 17.0191 148.99 17.0191H149.407Z" fill="#006B4E"/>
<path d="M183.426 19.8291H179.839C179.744 19.8379 179.649 19.8203 179.563 19.7782C179.478 19.736 179.406 19.671 179.355 19.5903C176.885 16.7029 174.202 14.0037 171.329 11.5154H169.719V19.5474C169.721 19.5849 169.715 19.6223 169.701 19.6572C169.688 19.6922 169.667 19.7239 169.641 19.7505C169.614 19.777 169.583 19.7976 169.548 19.8112C169.513 19.8247 169.475 19.8308 169.438 19.8291H166.683C166.646 19.8309 166.609 19.8248 166.574 19.8112C166.539 19.7976 166.508 19.7768 166.482 19.7502C166.456 19.7236 166.436 19.6918 166.423 19.6568C166.41 19.6219 166.405 19.5846 166.407 19.5474V0.648929C166.406 0.612288 166.412 0.575686 166.425 0.541471C166.438 0.507255 166.458 0.476183 166.484 0.450245C166.51 0.424306 166.541 0.404074 166.575 0.390848C166.61 0.377622 166.646 0.371692 166.683 0.37344H169.438C169.475 0.370798 169.512 0.376063 169.547 0.388888C169.582 0.401714 169.614 0.421808 169.641 0.447844C169.667 0.47388 169.688 0.505267 169.702 0.539929C169.715 0.574592 169.721 0.611742 169.719 0.648929V8.31363H171.36C174.002 5.95092 176.429 3.35941 178.615 0.569343C178.659 0.500234 178.721 0.444378 178.794 0.407723C178.867 0.371068 178.949 0.354986 179.031 0.361196H182.429C182.594 0.361196 182.673 0.446903 182.673 0.557099C182.667 0.63597 182.632 0.709827 182.576 0.765246C179.961 4.04511 177.054 7.07988 173.888 9.83188C177.377 12.7894 180.618 16.0264 183.58 19.5107C183.733 19.6638 183.647 19.8291 183.426 19.8291Z" fill="#006B4E"/>
<path d="M194.93 19.8291V0.361195H202.184C203.979 0.305996 205.755 0.728542 207.333 1.58559C208.747 2.39462 209.899 3.59315 210.651 5.03838C211.446 6.59472 211.846 8.32312 211.814 10.0706C211.846 11.8182 211.446 13.5466 210.651 15.1029C209.897 16.5469 208.746 17.745 207.333 18.5557C205.755 19.4127 203.979 19.8353 202.184 19.7801L194.93 19.8291ZM202.172 2.55286H197.274V17.6313H202.172C203.523 17.6696 204.859 17.344 206.041 16.6885C207.111 16.0751 207.976 15.1593 208.527 14.056C209.13 12.8224 209.428 11.4619 209.396 10.089C209.43 8.71597 209.131 7.35509 208.527 6.12197C207.974 5.02161 207.109 4.10824 206.041 3.49564C204.859 2.84015 203.523 2.51452 202.172 2.55286Z" fill="#006B4E"/>
<path d="M222.031 20.1229C220.814 20.1506 219.614 19.8367 218.566 19.2169C217.571 18.6128 216.769 17.7352 216.258 16.6885C215.679 15.5089 215.393 14.2067 215.426 12.8929C215.402 11.597 215.683 10.3136 216.246 9.14622C216.759 8.09821 217.551 7.2125 218.536 6.58724C219.565 5.96175 220.754 5.64711 221.958 5.68119H222.221C223.354 5.65576 224.468 5.97375 225.417 6.59336C226.349 7.23036 227.08 8.1203 227.523 9.15847C228.043 10.3871 228.295 11.7122 228.264 13.0459V13.7989H217.673C217.756 14.9805 218.249 16.0959 219.068 16.9517C219.473 17.3442 219.952 17.6502 220.479 17.8512C221.005 18.0522 221.567 18.144 222.129 18.121H222.374C223.089 18.1279 223.796 17.9752 224.443 17.6741C225.061 17.3882 225.609 16.9703 226.047 16.4497L227.468 17.8823C226.853 18.59 226.087 19.1506 225.227 19.523C224.315 19.9315 223.325 20.1402 222.325 20.1352L222.031 20.1229ZM221.891 7.67083C221.361 7.65501 220.833 7.75095 220.343 7.95241C219.852 8.15387 219.41 8.45634 219.044 8.84013C218.247 9.70319 217.764 10.8095 217.673 11.9807H226.011C225.986 10.8678 225.599 9.79325 224.909 8.91971C224.572 8.51279 224.145 8.19019 223.661 7.97761C223.177 7.76504 222.651 7.66837 222.123 7.69532L221.891 7.67083Z" fill="#006B4E"/>
<path d="M237.263 20.1229C234.504 20.1229 232.502 19.2189 231.257 17.4109L232.788 16.0763C233.767 17.4843 235.255 18.1884 237.251 18.1884H237.502C238.329 18.2336 239.154 18.0493 239.883 17.6558C240.12 17.5121 240.32 17.3151 240.468 17.0806C240.615 16.846 240.706 16.5802 240.733 16.3045C240.759 16.0287 240.721 15.7505 240.622 15.492C240.522 15.2334 240.364 15.0017 240.159 14.8152C239.582 14.3979 238.911 14.1307 238.206 14.0377L235.677 13.5051C233.025 12.9663 231.7 11.7297 231.704 9.79515C231.689 9.21309 231.816 8.63608 232.073 8.11361C232.33 7.59114 232.709 7.1388 233.18 6.79539C234.318 5.99521 235.69 5.59673 237.079 5.66282H237.355C239.714 5.66282 241.475 6.5199 242.638 8.23405L241.108 9.45844C240.7 8.84964 240.141 8.3579 239.485 8.03202C238.81 7.7215 238.073 7.56868 237.33 7.58512H237.079C236.274 7.54888 235.474 7.73302 234.765 8.11773C234.497 8.26019 234.272 8.47372 234.117 8.73499C233.961 8.99626 233.881 9.29523 233.884 9.59924C233.876 9.82362 233.92 10.0468 234.014 10.2509C234.107 10.455 234.247 10.6344 234.422 10.7747C234.972 11.1464 235.601 11.3853 236.259 11.4726L238.995 12.048C240.062 12.2254 241.059 12.6911 241.879 13.3949C242.229 13.7306 242.503 14.1379 242.682 14.589C242.86 15.0401 242.939 15.5244 242.914 16.0089C242.934 16.5888 242.814 17.165 242.563 17.6884C242.313 18.2118 241.939 18.6668 241.475 19.0148C240.328 19.8359 238.934 20.2359 237.526 20.1474L237.263 20.1229Z" fill="#006B4E"/>
<path d="M248.001 3.09772C247.793 3.1069 247.586 3.07302 247.392 2.99822C247.198 2.92341 247.022 2.8093 246.875 2.66306C246.735 2.51545 246.626 2.34137 246.554 2.15108C246.483 1.96078 246.45 1.75811 246.458 1.55498C246.451 1.35099 246.484 1.14754 246.555 0.956329C246.627 0.765115 246.735 0.589908 246.875 0.440783C247.185 0.164956 247.586 0.0125999 248.001 0.0125999C248.416 0.0125999 248.817 0.164956 249.127 0.440783C249.267 0.589908 249.375 0.765115 249.447 0.956329C249.518 1.14754 249.551 1.35099 249.544 1.55498C249.552 1.75811 249.519 1.96078 249.447 2.15108C249.376 2.34137 249.267 2.51545 249.127 2.66306C248.98 2.80991 248.804 2.92442 248.61 2.99927C248.416 3.07412 248.209 3.10765 248.001 3.09772ZM246.905 19.8291V5.98729H249.103V19.8168L246.905 19.8291Z" fill="#006B4E"/>
<path d="M258.965 15.5927C258.305 15.5982 257.646 15.5179 257.006 15.3539C256.616 15.7126 256.374 16.2037 256.327 16.7313C256.327 17.5476 256.896 17.9557 258.035 17.9557H261.316C262.973 17.9557 264.21 18.2598 265.026 18.8679C265.43 19.1699 265.754 19.5671 265.967 20.0243C266.181 20.4814 266.278 20.9843 266.251 21.4881C266.264 22.1746 266.085 22.8511 265.733 23.4409C265.381 24.0306 264.871 24.51 264.261 24.8246C262.939 25.6041 261.114 25.9918 258.788 25.9878C257.238 26.06 255.693 25.7598 254.282 25.1123C253.779 24.8896 253.352 24.5234 253.056 24.0595C252.76 23.5956 252.607 23.0547 252.617 22.5044C252.606 21.785 252.866 21.0879 253.345 20.5515C253.911 19.9456 254.6 19.4677 255.366 19.1495C255.083 18.9366 254.855 18.6584 254.703 18.3386C254.55 18.0188 254.477 17.6669 254.49 17.3129C254.546 16.3534 254.969 15.4522 255.672 14.7968C254.945 14.3882 254.352 13.778 253.964 13.0398C253.581 12.3006 253.385 11.4786 253.394 10.6461C253.37 9.97632 253.49 9.30909 253.747 8.68996C254.003 8.07084 254.391 7.5144 254.882 7.05863C256.014 6.08963 257.478 5.59606 258.965 5.68119H259.216C260.367 5.64906 261.505 5.92825 262.51 6.48929C262.78 5.98379 263.192 5.569 263.697 5.29678C264.201 5.02457 264.774 4.90701 265.344 4.9588C265.701 4.96203 266.055 5.001 266.404 5.07511V6.9117C266.189 6.85197 265.97 6.81302 265.749 6.79539C265.565 6.79539 265.4 6.79539 265.259 6.79539C264.95 6.76849 264.64 6.80514 264.346 6.90307C264.052 7.00099 263.781 7.15812 263.551 7.36473C264.376 8.27147 264.815 9.46384 264.775 10.689C264.799 11.3548 264.68 12.0181 264.425 12.6338C264.171 13.2496 263.787 13.8035 263.3 14.2581C262.169 15.2305 260.705 15.7245 259.216 15.6355L258.965 15.5927ZM254.772 22.0758C254.772 23.4798 256.18 24.1797 258.996 24.1757C260.296 24.2456 261.594 24.0086 262.785 23.4839C263.163 23.3318 263.488 23.073 263.72 22.7392C263.953 22.4055 264.083 22.0111 264.096 21.6044C264.096 20.4086 263.09 19.8107 261.077 19.8107H257.214C256.558 19.9715 255.947 20.2792 255.427 20.7106C255.225 20.8769 255.062 21.0852 254.949 21.321C254.836 21.5568 254.775 21.8143 254.772 22.0758V22.0758ZM258.978 13.8112H259.204C260.133 13.8715 261.048 13.5635 261.751 12.9541C262.329 12.3331 262.651 11.5161 262.651 10.6675C262.651 9.81896 262.329 9.00192 261.751 8.38098C261.047 7.77374 260.132 7.46806 259.204 7.53002H258.978C258.052 7.47101 257.14 7.77643 256.437 8.38098C255.859 9.00192 255.537 9.81896 255.537 10.6675C255.537 11.5161 255.859 12.3331 256.437 12.9541C257.143 13.552 258.055 13.8508 258.978 13.7867V13.8112Z" fill="#006B4E"/>
<path d="M269.807 19.8168V5.98728H271.999V8.60749C272.473 7.74211 273.152 7.00633 273.976 6.4648C274.808 5.93051 275.78 5.65561 276.768 5.67506H277.056C277.743 5.63696 278.429 5.75865 279.061 6.03058C279.693 6.30251 280.254 6.71727 280.698 7.24229C281.56 8.28302 281.99 9.7727 281.99 11.7113V19.8168H279.798V12.0358C279.878 10.9035 279.599 9.77503 279.003 8.80951C278.71 8.43771 278.33 8.14416 277.896 7.95508C277.462 7.766 276.989 7.68727 276.517 7.72592H276.254C275.28 7.70627 274.337 8.06384 273.621 8.7238C272.879 9.41144 272.325 10.2776 272.011 11.2399V19.8107L269.807 19.8168Z" fill="#006B4E"/>
</g>
<defs>
<clipPath id="clip0">
<rect width="281.99" height="26" fill="white"/>
</clipPath>
</defs>
</svg>

<svg width="282" height="26" fill="none" xmlns="http://www.w3.org/2000/svg"><g clip-path="url(#clip0)"><path d="M14.57.649v2.559a.263.263 0 0 1-.275.282H3.275v5.228h9.097a.263.263 0 0 1 .282.275v2.56a.268.268 0 0 1-.282.28H3.306v7.714a.263.263 0 0 1-.276.282H.275A.264.264 0 0 1 0 19.547V.65A.263.263 0 0 1 .275.373h14.02a.263.263 0 0 1 .275.276zm22.413 19.18h-3.03a.307.307 0 0 1-.319-.25A74.827 74.827 0 0 0 32.19 14.6h-9.305a67.904 67.904 0 0 0-1.433 4.977.306.306 0 0 1-.318.251h-2.92c-.196 0-.306-.11-.251-.306a129.018 129.018 0 0 1 7.12-18.8.538.538 0 0 1 .545-.362h3.948a.527.527 0 0 1 .539.361 126.428 126.428 0 0 1 7.12 18.801c.055.196-.055.306-.251.306zm-5.822-8.234a115.342 115.342 0 0 0-3.3-8.173h-.649a115.391 115.391 0 0 0-3.312 8.173h7.26zm10.811-1.335c0-6.036 3.98-10.26 9.654-10.26h.417a8.65 8.65 0 0 1 7.769 4.42c.098.171.073.306-.092.392L57.27 6.036a.344.344 0 0 1-.49-.122 5.167 5.167 0 0 0-4.848-2.724h-.423c-3.569 0-6.03 2.834-6.03 6.954 0 4.12 2.449 6.893 6.03 6.893h.423c2.332 0 3.673-.79 4.738-2.001a.355.355 0 0 1 .46-.098l2.515 1.224a.227.227 0 0 1 .141.196.385.385 0 0 1-.086.208c-1.542 2.253-4.322 3.673-7.713 3.673h-.417c-5.785-.049-9.599-4.01-9.599-9.979zm39.983 6.735v2.552a.27.27 0 0 1-.282.282h-14.6a.264.264 0 0 1-.276-.282V.65a.264.264 0 0 1 .275-.276h14.35a.264.264 0 0 1 .282.276v2.559a.27.27 0 0 1-.282.282H70.133v5.062h9.183a.263.263 0 0 1 .276.276v2.528a.262.262 0 0 1-.276.282h-9.183v5.087h11.57a.27.27 0 0 1 .252.27zm25.137-2.504c0 3.404-2.614 5.338-7.23 5.338h-9.569a.264.264 0 0 1-.276-.282V.65a.264.264 0 0 1 .276-.276h8.718c4.493 0 6.942 1.782 6.942 5.033 0 2.142-1.084 3.544-3.281 4.2 3.085.642 4.42 2.491 4.42 4.885zm-8.149-11.1h-5.62v5.216h5.62c2.516 0 3.674-.82 3.674-2.614 0-1.793-1.158-2.601-3.674-2.601zm4.757 10.806c0-1.806-1.224-2.627-3.826-2.627h-6.55V16.8h6.55c2.669 0 3.826-.778 3.826-2.602zm9.22-4.102C112.92 4.225 116.807 0 122.929 0h.416c6.122 0 10.01 4.224 10.01 10.095s-3.894 10.095-10.01 10.095h-.416c-6.122 0-10.009-4.236-10.009-10.095zm10.407 6.924c3.992 0 6.508-2.736 6.508-6.924 0-4.187-2.516-6.924-6.508-6.924h-.416c-3.992 0-6.508 2.737-6.508 6.924 0 4.188 2.516 6.924 6.508 6.924h.416zm15.672-6.924c0-5.87 3.894-10.095 10.016-10.095h.416c6.122 0 10.01 4.224 10.01 10.095s-3.894 10.095-10.01 10.095h-.416c-6.122 0-10.016-4.236-10.016-10.095zm10.408 6.924c3.991 0 6.507-2.736 6.507-6.924 0-4.187-2.516-6.924-6.507-6.924h-.417c-3.991 0-6.507 2.737-6.507 6.924 0 4.188 2.516 6.924 6.507 6.924h.417zm34.019 2.81h-3.587a.518.518 0 0 1-.484-.239 76.285 76.285 0 0 0-8.026-8.075h-1.61v8.032a.268.268 0 0 1-.281.282h-2.755a.265.265 0 0 1-.276-.282V.65a.281.281 0 0 1 .018-.108.258.258 0 0 1 .15-.15.267.267 0 0 1 .108-.018h2.755a.262.262 0 0 1 .281.276v7.665h1.641a60.18 60.18 0 0 0 7.255-7.745.454.454 0 0 1 .416-.208h3.398c.165 0 .244.086.244.196a.329.329 0 0 1-.097.208 69.027 69.027 0 0 1-8.688 9.067 84.068 84.068 0 0 1 9.692 9.679c.153.153.067.318-.154.318zm11.504 0V.361h7.254a10.133 10.133 0 0 1 5.149 1.225 8.497 8.497 0 0 1 3.318 3.452 10.635 10.635 0 0 1 1.163 5.033 10.635 10.635 0 0 1-1.163 5.032 8.534 8.534 0 0 1-3.318 3.453 10.134 10.134 0 0 1-5.149 1.224l-7.254.05zm7.242-17.276h-4.898V17.63h4.898a7.536 7.536 0 0 0 3.869-.942 6.257 6.257 0 0 0 2.486-2.633 8.578 8.578 0 0 0 .869-3.967 8.54 8.54 0 0 0-.869-3.967 6.279 6.279 0 0 0-2.486-2.626 7.536 7.536 0 0 0-3.869-.943zm19.859 17.57a6.515 6.515 0 0 1-3.465-.906 6.08 6.08 0 0 1-2.308-2.528 8.15 8.15 0 0 1-.832-3.796 8.273 8.273 0 0 1 .82-3.747 6.322 6.322 0 0 1 2.29-2.559 6.25 6.25 0 0 1 3.422-.906h.263a5.615 5.615 0 0 1 3.196.912 5.924 5.924 0 0 1 2.106 2.565 9.412 9.412 0 0 1 .741 3.888v.753h-10.591a5.073 5.073 0 0 0 1.395 3.153 4.153 4.153 0 0 0 3.061 1.169h.245a4.794 4.794 0 0 0 2.069-.447 4.644 4.644 0 0 0 1.604-1.224l1.421 1.432a6.27 6.27 0 0 1-2.241 1.641 7.015 7.015 0 0 1-2.902.612l-.294-.012zm-.14-12.452a3.777 3.777 0 0 0-2.847 1.17 5.226 5.226 0 0 0-1.371 3.14h8.338a5.124 5.124 0 0 0-1.102-3.061 3.39 3.39 0 0 0-2.786-1.225l-.232-.024zm15.372 12.452c-2.759 0-4.761-.904-6.006-2.712l1.531-1.335c.979 1.408 2.467 2.112 4.463 2.112h.251a4.499 4.499 0 0 0 2.381-.532 1.788 1.788 0 0 0 .85-1.351 1.784 1.784 0 0 0-.574-1.49 4.29 4.29 0 0 0-1.953-.777l-2.529-.533c-2.652-.539-3.977-1.775-3.973-3.71a3.6 3.6 0 0 1 1.476-3 6.262 6.262 0 0 1 3.899-1.132h.276c2.359 0 4.12.857 5.283 2.571l-1.53 1.224a4.207 4.207 0 0 0-1.623-1.426 4.897 4.897 0 0 0-2.155-.447h-.251a4.434 4.434 0 0 0-2.314.533 1.659 1.659 0 0 0-.881 1.481 1.435 1.435 0 0 0 .538 1.176c.55.371 1.179.61 1.837.698l2.736.575a5.917 5.917 0 0 1 2.884 1.347 3.384 3.384 0 0 1 1.035 2.614 3.597 3.597 0 0 1-1.439 3.006 6.122 6.122 0 0 1-3.949 1.132l-.263-.024zm10.738-17.025a1.507 1.507 0 0 1-1.126-.435 1.531 1.531 0 0 1-.417-1.108 1.55 1.55 0 0 1 .417-1.114 1.694 1.694 0 0 1 2.252 0 1.55 1.55 0 0 1 .417 1.114 1.516 1.516 0 0 1-.417 1.108 1.49 1.49 0 0 1-1.126.435zm-1.096 16.731V5.987h2.198v13.83l-2.198.012zm12.06-4.236a7.638 7.638 0 0 1-1.959-.24c-.39.36-.632.85-.679 1.378 0 .817.569 1.225 1.708 1.225h3.281c1.657 0 2.894.304 3.71.912a3.057 3.057 0 0 1 1.225 2.62 3.674 3.674 0 0 1-1.99 3.337c-1.322.78-3.147 1.167-5.473 1.163a9.72 9.72 0 0 1-4.506-.876 2.798 2.798 0 0 1-1.665-2.608 2.866 2.866 0 0 1 .728-1.953 5.821 5.821 0 0 1 2.021-1.401 2.195 2.195 0 0 1-.876-1.837c.056-.96.479-1.86 1.182-2.516a4.322 4.322 0 0 1-1.708-1.757 5.084 5.084 0 0 1-.57-2.394 4.666 4.666 0 0 1 1.488-3.587 5.773 5.773 0 0 1 4.083-1.378h.251a6.392 6.392 0 0 1 3.294.808 2.912 2.912 0 0 1 2.834-1.53c.357.003.711.042 1.06.116v1.837a3.479 3.479 0 0 0-.655-.117h-.49a2.264 2.264 0 0 0-1.708.57 4.71 4.71 0 0 1 1.224 3.324 4.645 4.645 0 0 1-1.475 3.57 5.738 5.738 0 0 1-4.084 1.377l-.251-.043zm-4.193 6.483c0 1.404 1.408 2.104 4.224 2.1 1.3.07 2.598-.167 3.789-.692a2.099 2.099 0 0 0 1.311-1.88c0-1.195-1.006-1.793-3.019-1.793h-3.863a4.463 4.463 0 0 0-1.787.9 1.795 1.795 0 0 0-.655 1.365zm4.206-8.265h.226a3.538 3.538 0 0 0 2.547-.857 3.357 3.357 0 0 0 0-4.573 3.539 3.539 0 0 0-2.547-.851h-.226a3.55 3.55 0 0 0-2.541.851 3.357 3.357 0 0 0 0 4.573 3.552 3.552 0 0 0 2.541.833v.024zm10.829 6.006V5.987h2.192v2.62a6.031 6.031 0 0 1 1.977-2.142 4.986 4.986 0 0 1 2.792-.79h.288a4.449 4.449 0 0 1 3.642 1.567c.862 1.041 1.292 2.53 1.292 4.47v8.105h-2.192v-7.781a5.416 5.416 0 0 0-.795-3.226 2.868 2.868 0 0 0-2.486-1.084h-.263a3.772 3.772 0 0 0-2.633.998 5.944 5.944 0 0 0-1.61 2.516v8.57l-2.204.007z" fill="#006B4E"/></g><defs><clipPath id="clip0"><path fill="#fff" d="M0 0H281.99V26H0z"/></clipPath></defs></svg>
